packages/ffe-icons/icons/filled/sm/local_laundry_service.svg

<svg xmlns="http://www.w3.org/2000/svg" height="20" viewBox="0 -960 960 960" width="20"><path d="M276.025-116.001q-26.543 0-45.283-18.891-18.741-18.89-18.741-45.417v-599.382q0-26.527 18.903-45.417 18.902-18.891 45.445-18.891h407.626q26.543 0 45.283 18.891 18.741 18.89 18.741 45.417v599.382q0 26.527-18.903 45.417-18.902 18.891-45.445 18.891H276.025Zm204.173-139.385q63.417 0 107.917-44.697 44.499-44.698 44.499-108.115 0-63.417-44.697-107.917-44.698-44.499-108.115-44.499-63.417 0-107.917 44.697-44.499 44.698-44.499 108.115 0 63.417 44.697 107.917 44.698 44.499 108.115 44.499ZM479.924-312q-18.924 0-36.386-7.192-17.462-7.193-30.769-20.808L548-475.231q13.615 13.387 20.808 31.02Q576-426.578 576-407.866 576-368 547.978-340t-68.054 28ZM347.789-672Q363-672 373.5-682.289q10.5-10.29 10.5-25.5Q384-723 373.711-733.5q-10.29-10.5-25.5-10.5Q333-744 322.5-733.711q-10.5 10.29-10.5 25.5Q312-693 322.289-682.5q10.29 10.5 25.5 10.5Zm120 0Q483-672 493.5-682.289q10.5-10.29 10.5-25.5Q504-723 493.711-733.5q-10.29-10.5-25.5-10.5Q453-744 442.5-733.711q-10.5 10.29-10.5 25.5Q432-693 442.289-682.5q10.29 10.5 25.5 10.5Z"/></svg>

<svg xmlns="http://www.w3.org/2000/svg" height="20" viewBox="0 -960 960 960" width="20"><path d="M276.03-116q-26.55 0-45.29-18.89T212-180.31v-599.38q0-26.53 18.9-45.42Q249.81-844 276.35-844h407.62q26.55 0 45.29 18.89T748-779.69v599.38q0 26.53-18.9 45.42Q710.19-116 683.65-116H276.03ZM480.2-255.39q63.41 0 107.91-44.69 44.5-44.7 44.5-108.12 0-63.41-44.69-107.91-44.7-44.5-108.12-44.5-63.41 0-107.91 44.69-44.5 44.7-44.5 108.12 0 63.41 44.69 107.91 44.7 44.5 108.12 44.5Zm-.28-56.61q-18.92 0-36.38-7.19T412.77-340L548-475.23q13.62 13.39 20.81 31.02 7.19 17.63 7.19 36.34Q576-368 547.98-340q-28.02 28-68.06 28ZM347.79-672q15.21 0 25.71-10.29t10.5-25.5q0-15.21-10.29-25.71t-25.5-10.5q-15.21 0-25.71 10.29t-10.5 25.5q0 15.21 10.29 25.71t25.5 10.5Zm120 0q15.21 0 25.71-10.29t10.5-25.5q0-15.21-10.29-25.71t-25.5-10.5q-15.21 0-25.71 10.29t-10.5 25.5q0 15.21 10.29 25.71t25.5 10.5Z"/></svg>
